qtOfs/res/icons/messages.svg

<svg width="128" xmlns="http://www.w3.org/2000/svg" height="128" viewBox="0 0 48 32">
<defs/>
<g transform="matrix(.36563 0 0 .37424 .60707 -7.91159)">
<path fill="#fa9815" d="m57.63,37.56c5.65-8.17 11.73-16.05 18.06-23.7 1.76,9.42 1.59,19.06 3.46,28.47 5.25-.37 10.49-.9 15.65-1.94-.25,5.3-.15,10.61-.11,15.92 9.15,.46 18.29-.29 27.42-.77-1.46,1.34-2.85,2.74-4.41,3.95-7.9,5.36-15.79,10.72-23.46,16.41 1.43,2.03 2.8,4.09 4.12,6.19 3.97,6.56 8.2,12.99 11.65,19.84l-.77-.31c-5.44-2.09-10.74-4.52-16.13-6.73 1.33,.06 2.66,.11 3.99,.17 2.34,.53 4.68,1.09 7.03,1.65-1.52-3.62-3.2-7.18-5.44-10.41-2.48-3.54-4.14-7.54-6.22-11.31 1.43-1.23 2.87-2.45 4.32-3.65 5.46-4.31 11.5-7.89 16.42-12.88-6.72-.23-13.45-.12-20.17-.22-.77-4.75-.93-9.56-1.01-14.35-2.1,.12-4.2,.25-6.3,.31-2.95,.07-5.9,.14-8.82,.55-1.16-8.26-1.47-16.63-3.01-24.84-3.38,3.97-6.68,8.01-9.78,12.21-2.04,2.6-3.95,5.39-6.63,7.37-1.41,.2-2.71-.49-3.91-1.11-3.27-1.8-6.31-3.98-9.36-6.11-2.07,3.41-4.12,6.85-5.82,10.48-2.4,.61-4.99,1.54-7.39,.39-6.1-2.41-11.79-5.74-17.93-8.1 .91,1.61 1.82,3.23 2.72,4.84 1.25,3.76 2.53,7.51 4.36,11.03 .2,2.7 .27,5.4 .5,8.09-3.35,1.49-6.54,3.28-9.66,5.19 2.99,2.94 6.11,5.78 8.71,9.08 1.44,1.89 .61,4.42 .26,6.53-1.73,2.44-3.6,4.79-5.18,7.33-.27,.42-.8,1.25-1.07,1.67 7.48,.2 14.97,.05 22.45,.17l.22,.87c-.01,2.05-.13,4.1-.15,6.16-.37-2.06-.81-4.11-1.22-6.15-7.64,.03-15.26,.56-22.87,1.24-.57,.04-1.72,.11-2.29,.15 1.73-3.93 4.15-7.47 6.66-10.94 .91-1.42 1.84-2.85 2.46-4.43-1.88-4.23-6.31-6.45-9.51-9.57-.86-.73-1.72-1.47-2.59-2.2 3.61-2.06 7.3-4.02 10.59-6.57 .54-.4 1.61-1.21 2.15-1.61-2.21-5.8-4.38-11.61-6.92-17.28-1.16-2.86-2.28-5.73-3.41-8.6 8.62,4.46 17.58,8.2 26.33,12.4 2.69-4.49 5.55-8.86 8.52-13.17 4.65,2.54 8.59,6.21 13.49,8.29z"/>
</g>
<g transform="matrix(.36563 0 0 .37424 .60707 -7.91159)">
<path fill="#fff4d4" d="m64.12,32.12c3.1-4.2 6.4-8.24 9.78-12.21 1.54,8.21 1.85,16.58 3.01,24.84-1.49,.24-2.97,.51-4.45,.78-2.2-2.08-4.59-5.25-8.04-4.33-1.67,.89-2.75,2.51-3.84,3.99-4.04,.47-8.12,.97-12.2,.67-3.54-.2-6.74-1.85-9.98-3.11 1.7-3.63 3.75-7.07 5.82-10.48 3.05,2.13 6.09,4.31 9.36,6.11 1.2,.62 2.5,1.31 3.91,1.11 2.68-1.98 4.59-4.77 6.63-7.37z"/>
</g>
<g transform="matrix(.36563 0 0 .37424 .60707 -7.91159)">
<path fill="#fff0c2" d="m13.08,35.04c6.14,2.36 11.83,5.69 17.93,8.1 2.4,1.15 4.99,.22 7.39-.39 3.24,1.26 6.44,2.91 9.98,3.11 4.08,.3 8.16-.2 12.2-.67l-.37,.68c-3.26,7.25-5.4,14.94-7.87,22.48-1.14,2.84-.39,5.85 .38,8.67-.23,.35-.69,1.04-.92,1.39-3.88,.71-7.7,2.38-9.67,6.01-3.82,6.4-3.56,15.46 1.69,21.02-1.48,.43-2.91,1-4.18,1.87-.86-5.86-1.73-11.74-3.25-17.47l-.22-.87c-.18-.38-.54-1.15-.72-1.53-3.27-.34-6.57-.3-9.85-.06 .93-2.87 1.78-5.82 3.44-8.36 3-4.65 7.26-8.52 9.3-13.77 .88-2.3 1.48-5.2-.17-7.32-1.74-2.33-4.26-3.87-6.63-5.48-5.69-3.61-10.51-8.36-15.74-12.57-.9-1.61-1.81-3.23-2.72-4.84z"/>
</g>
<g transform="matrix(.36563 0 0 .37424 .60707 -7.91159)">
<path opacity=".15" d="m11.12,41.79c-.39-1.37 .33-2.59 1.58-3.15 2.54,5.67 4.71,11.48 6.92,17.28-.54,.4-1.61,1.21-2.15,1.61-2.51-5.06-5.32-10.13-6.35-15.74z"/>
</g>
<g transform="matrix(.36563 0 0 .37424 .60707 -7.91159)">
<path fill="#ffebad" d="m15.8,39.88c5.23,4.21 10.05,8.96 15.74,12.57 2.37,1.61 4.89,3.15 6.63,5.48 1.65,2.12 1.05,5.02 .17,7.32-2.04,5.25-6.3,9.12-9.3,13.77-1.66,2.54-2.51,5.49-3.44,8.36-.75,.05-2.26,.15-3.01,.2-.21-1.66-.85-3.46-.06-5.05 2.13-4.78 5.71-8.86 7.06-13.99 .85-3.01 .77-6.46-1.07-9.1-2.26-3.32-5.56-5.71-8.36-8.53-1.83-3.52-3.11-7.27-4.36-11.03z"/>
</g>
<g transform="matrix(.36563 0 0 .37424 .60707 -7.91159)">
<path fill="#050505" d="m64.42,41.2c3.45-.92 5.84,2.25 8.04,4.33-.86,1.88-1.7,3.77-2.56,5.65-3.34-1.57-6.57-3.36-9.69-5.31l.37-.68c1.09-1.48 2.17-3.1 3.84-3.99z"/>
</g>
<g transform="matrix(.36563 0 0 .37424 .60707 -7.91159)">
<path fill="#ffeeb9" d="m76.91,44.75c2.92-.41 5.87-.48 8.82-.55 .44,.41 1.31,1.25 1.75,1.66-2.88,3.02-6.1,5.94-7.81,9.81-1.12,2.97 .72,5.95 2.34,8.33 2.83,4.26 7.12,7.19 10.46,10.99 2.08,3.77 3.74,7.77 6.22,11.31 2.24,3.23 3.92,6.79 5.44,10.41-2.35-.56-4.69-1.12-7.03-1.65-1.22-.74-2.41-1.53-3.63-2.26 1.51-.43 3.02-.86 4.53-1.28-1.73-3.62-3.33-7.42-6.26-10.27-7.91-8.04-17.65-14.13-27.99-18.57 2.32-3.68 4.35-7.54 6.15-11.5 .86-1.88 1.7-3.77 2.56-5.65 1.48-.27 2.96-.54 4.45-.78z"/>
</g>
<g transform="matrix(.36563 0 0 .37424 .60707 -7.91159)">
<path fill="#ffe8a2" d="m85.73,44.2c2.1-.06 4.2-.19 6.3-.31 .08,4.79 .24,9.6 1.01,14.35 1.45,4.31 2.87,8.63 3.75,13.1-1.45,1.2-2.89,2.42-4.32,3.65-3.34-3.8-7.63-6.73-10.46-10.99-1.62-2.38-3.46-5.36-2.34-8.33 1.71-3.87 4.93-6.79 7.81-9.81-.44-.41-1.31-1.25-1.75-1.66z"/>
</g>
<g fill="#212121" transform="matrix(.36563 0 0 .37424 .60707 -7.91159)">
<path d="m52.34,68.35c2.47-7.54 4.61-15.23 7.87-22.48 3.12,1.95 6.35,3.74 9.69,5.31-1.8,3.96-3.83,7.82-6.15,11.5-3.02,4.65-5.74,9.5-9.11,13.91-.48,.11-1.44,.32-1.92,.43-.77-2.82-1.52-5.83-.38-8.67z"/>
<path d="m42.13,84.42c1.97-3.63 5.79-5.3 9.67-6.01 .79,2.39 2.03,4.74 1.99,7.31-.14,3.34-4.35,4.72-7.09,3.73-1.82-1.38-3.13-3.29-4.57-5.03z"/>
</g>
<g transform="matrix(.36563 0 0 .37424 .60707 -7.91159)">
<path fill="#ffe699" d="m20.16,50.91c2.8,2.82 6.1,5.21 8.36,8.53 1.84,2.64 1.92,6.09 1.07,9.1-1.35,5.13-4.93,9.21-7.06,13.99-.79,1.59-.15,3.39 .06,5.05-2.61,.05-5.21-.2-7.8-.45 1.58-2.54 3.45-4.89 5.18-7.33 1.12-1.74 2.25-3.62 2.3-5.75 .23-5.07-1.27-10.01-1.61-15.05-.23-2.69-.3-5.39-.5-8.09z"/>
</g>
<g transform="matrix(.36563 0 0 .37424 .60707 -7.91159)">
<path fill="#ffdc74" d="m93.04,58.24c6.72,.1 13.45-.01 20.17,.22-4.92,4.99-10.96,8.57-16.42,12.88-.88-4.47-2.3-8.79-3.75-13.1z"/>
</g>
<g transform="matrix(.36563 0 0 .37424 .60707 -7.91159)">
<path fill="#ffdf80" d="m11,64.19c3.12-1.91 6.31-3.7 9.66-5.19 .34,5.04 1.84,9.98 1.61,15.05-.05,2.13-1.18,4.01-2.3,5.75 .35-2.11 1.18-4.64-.26-6.53-2.6-3.3-5.72-6.14-8.71-9.08z"/>
</g>
<g transform="matrix(.36563 0 0 .37424 .60707 -7.91159)">
<path opacity=".17" d="m94.24,75.9c7.67-5.69 15.56-11.05 23.46-16.41 .36,1.4 .81,2.8 .91,4.26-1.25,3.14-4.43,4.9-7.02,6.85-4.92,3.19-9.94,6.51-13.23,11.49-1.32-2.1-2.69-4.16-4.12-6.19z"/>
</g>
<g transform="matrix(.36563 0 0 .37424 .60707 -7.91159)">
<path fill="#fff5d4" d="m54.64,76.59c3.37-4.41 6.09-9.26 9.11-13.91 10.34,4.44 20.08,10.53 27.99,18.57 2.93,2.85 4.53,6.65 6.26,10.27-1.51,.42-3.02,.85-4.53,1.28-4.15-2.06-8.53-3.73-13.02-4.89-2.01-.66-3.63,1.11-5.08,2.21 1.02-2.1 2.1-4.17 3.21-6.23-2.59-1.59-5.12-3.31-7.86-4.65-4.98-2.38-10.62-3.06-16.08-2.65z"/>
</g>
<g transform="matrix(.36563 0 0 .37424 .60707 -7.91159)">
<path opacity=".16" d="m9.47,66.3c3.2,3.12 7.63,5.34 9.51,9.57-.62,1.58-1.55,3.01-2.46,4.43-2.42-2.53-5.16-4.87-6.86-7.98-1.06-1.85-.24-4.04-.19-6.02z"/>
</g>
<g transform="matrix(.36563 0 0 .37424 .60707 -7.91159)">
<path fill="#fffbf0" d="m54.64,76.59c5.46-.41 11.1,.27 16.08,2.65 2.74,1.34 5.27,3.06 7.86,4.65-1.11,2.06-2.19,4.13-3.21,6.23-1.49,3.48-3.72,6.55-6.02,9.53-3.89-2.89-8.25-5.03-12.26-7.74-4.85,4.1-8.81,9.06-13.27,13.53-5.25-5.56-5.51-14.62-1.69-21.02 1.44,1.74 2.75,3.65 4.57,5.03 2.74,.99 6.95-.39 7.09-3.73 .04-2.57-1.2-4.92-1.99-7.31 .23-.35 .69-1.04 .92-1.39 .48-.11 1.44-.32 1.92-.43z"/>
</g>
<g transform="matrix(.36563 0 0 .37424 .60707 -7.91159)">
<path fill="#fcc169" d="m13.72,88.8c.27-.42 .8-1.25 1.07-1.67 2.59,.25 5.19,.5 7.8,.45 .75-.05 2.26-.15 3.01-.2 3.28-.24 6.58-.28 9.85,.06 .18,.38 .54,1.15 .72,1.53-7.48-.12-14.97,.03-22.45-.17z"/>
</g>
<g transform="matrix(.36563 0 0 .37424 .60707 -7.91159)">
<path fill="#faad4e" d="m75.37,90.12c1.45-1.1 3.07-2.87 5.08-2.21 4.49,1.16 8.87,2.83 13.02,4.89 1.22,.73 2.41,1.52 3.63,2.26-1.33-.06-2.66-.11-3.99-.17-4.78-1.58-9.55-3.19-14.25-4.99-2.91,4.66-6.09,9.14-8.73,13.96-4.06-3.4-8.58-6.17-12.96-9.12-6.43,5.85-12.14,12.42-18.47,18.37-.85-5.7-1.76-11.39-2.46-17.11 .02-2.06 .14-4.11 .15-6.16 1.52,5.73 2.39,11.61 3.25,17.47 1.27-.87 2.7-1.44 4.18-1.87 4.46-4.47 8.42-9.43 13.27-13.53 4.01,2.71 8.37,4.85 12.26,7.74 2.3-2.98 4.53-6.05 6.02-9.53z"/>
</g>
<g transform="matrix(.36563 0 0 .37424 .60707 -7.91159)">
<path opacity=".15" d="m12.15,91.09c7.61-.68 15.23-1.21 22.87-1.24 .41,2.04 .85,4.09 1.22,6.15 .7,5.72 1.61,11.41 2.46,17.11 6.33-5.95 12.04-12.52 18.47-18.37 4.38,2.95 8.9,5.72 12.96,9.12 2.64-4.82 5.82-9.3 8.73-13.96 4.7,1.8 9.47,3.41 14.25,4.99 5.39,2.21 10.69,4.64 16.13,6.73-.15,1.45-.29,2.89-.42,4.34-1.81,.26-3.65,.92-5.49,.58-7.64-1.76-14.43-6.25-22.19-7.56-3.88,2.07-5.61,6.5-9.03,9.14-1.34,1.01-3.22,.94-4.77,.49-3.32-1.05-6.09-3.32-9.38-4.45-6.45,2.28-9.19,9.75-15.43,12.41-2.17,.84-5.13,.4-6.13-1.96-2.33-5.05-1.61-10.97-4.04-15.99-6.4-2.31-13.37,.35-19.91-1.16-1.72-.83-2.45-2.86-3.63-4.29 1.09-.72 2.19-1.44 3.33-2.08z"/>
</g>
</svg>

<?xml version="1.0" encoding="UTF-8" standalone="no"?>
<svg
   xmlns:dc="http://purl.org/dc/elements/1.1/"
   xmlns:cc="http://creativecommons.org/ns#"
   xmlns:rdf="http://www.w3.org/1999/02/22-rdf-syntax-ns#"
   xmlns:svg="http://www.w3.org/2000/svg"
   xmlns="http://www.w3.org/2000/svg"
   xmlns:sodipodi="http://sodipodi.sourceforge.net/DTD/sodipodi-0.dtd"
   xmlns:inkscape="http://www.inkscape.org/namespaces/inkscape"
   width="128"
   height="128"
   viewBox="0 0 48 32"
   version="1.0"
   id="svg2"
   sodipodi:version="0.32"
   inkscape:version="0.46"
   sodipodi:docname="messages.svg"
   inkscape:output_extension="org.inkscape.output.svg.inkscape">
  <metadata
     id="metadata25">
    <rdf:RDF>
      <cc:Work
         rdf:about="">
        <dc:format>image/svg+xml</dc:format>
        <dc:type
           rdf:resource="http://purl.org/dc/dcmitype/StillImage" />
      </cc:Work>
    </rdf:RDF>
  </metadata>
  <defs
     id="defs23">
    <inkscape:perspective
       sodipodi:type="inkscape:persp3d"
       inkscape:vp_x="0 : 20 : 1"
       inkscape:vp_y="0 : 1000 : 0"
       inkscape:vp_z="60 : 20 : 1"
       inkscape:persp3d-origin="30 : 13.333333 : 1"
       id="perspective27" />
    <inkscape:perspective
       id="perspective2574"
       inkscape:persp3d-origin="80 : 53.333333 : 1"
       inkscape:vp_z="160 : 80 : 1"
       inkscape:vp_y="0 : 1000 : 0"
       inkscape:vp_x="0 : 80 : 1"
       sodipodi:type="inkscape:persp3d" />
  </defs>
  <sodipodi:namedview
     inkscape:window-height="759"
     inkscape:window-width="1056"
     inkscape:pageshadow="2"
     inkscape:pageopacity="0.0"
     guidetolerance="10.0"
     gridtolerance="10.0"
     objecttolerance="10.0"
     borderopacity="1.0"
     bordercolor="#666666"
     pagecolor="#ffffff"
     id="base"
     showgrid="false"
     inkscape:zoom="1"
     inkscape:cx="35.969652"
     inkscape:cy="17.415648"
     inkscape:window-x="115"
     inkscape:window-y="41"
     inkscape:current-layer="svg2" />
  <g
     id="g2577"
     transform="matrix(0.3656266,0,0,0.3742419,0.6070699,-7.9115859)">
    <g
       id="#fa9815ff">
      <path
         id="path2511"
         d="M 57.63,37.56 C 63.28,29.39 69.36,21.51 75.69,13.86 C 77.45,23.28 77.28,32.92 79.15,42.33 C 84.4,41.96 89.64,41.43 94.8,40.39 C 94.55,45.69 94.65,51 94.69,56.31 C 103.84,56.77 112.98,56.02 122.11,55.54 C 120.65,56.88 119.26,58.28 117.7,59.49 C 109.8,64.85 101.91,70.21 94.24,75.9 C 95.67,77.93 97.04,79.99 98.36,82.09 C 102.33,88.65 106.56,95.08 110.01,101.93 L 109.24,101.62 C 103.8,99.53 98.5,97.1 93.11,94.89 C 94.44,94.95 95.77,95 97.1,95.06 C 99.44,95.59 101.78,96.15 104.13,96.71 C 102.61,93.09 100.93,89.53 98.69,86.3 C 96.21,82.76 94.55,78.76 92.47,74.99 C 93.9,73.76 95.34,72.54 96.79,71.34 C 102.25,67.03 108.29,63.45 113.21,58.46 C 106.49,58.23 99.76,58.34 93.04,58.24 C 92.27,53.49 92.11,48.68 92.03,43.89 C 89.93,44.01 87.83,44.14 85.73,44.2 C 82.78,44.27 79.83,44.34 76.91,44.75 C 75.75,36.49 75.44,28.12 73.9,19.91 C 70.52,23.88 67.22,27.92 64.12,32.12 C 62.08,34.72 60.17,37.51 57.49,39.49 C 56.08,39.69 54.78,39 53.58,38.38 C 50.31,36.58 47.27,34.4 44.22,32.27 C 42.15,35.68 40.1,39.12 38.4,42.75 C 36,43.36 33.41,44.29 31.01,43.14 C 24.91,40.73 19.22,37.4 13.08,35.04 C 13.99,36.65 14.9,38.27 15.8,39.88 C 17.05,43.64 18.33,47.39 20.16,50.91 C 20.36,53.61 20.43,56.31 20.66,59 C 17.31,60.49 14.12,62.28 11,64.19 C 13.99,67.13 17.11,69.97 19.71,73.27 C 21.15,75.16 20.32,77.69 19.97,79.8 C 18.24,82.24 16.37,84.59 14.79,87.13 C 14.52,87.55 13.99,88.38 13.72,88.8 C 21.2,89 28.69,88.85 36.17,88.97 L 36.39,89.84 C 36.38,91.89 36.26,93.94 36.24,96 C 35.87,93.94 35.43,91.89 35.02,89.85 C 27.38,89.88 19.76,90.41 12.15,91.09 C 11.58,91.13 10.43,91.2 9.86,91.24 C 11.59,87.31 14.01,83.77 16.52,80.3 C 17.43,78.88 18.36,77.45 18.98,75.87 C 17.1,71.64 12.67,69.42 9.47,66.3 C 8.61,65.57 7.75,64.83 6.88,64.1 C 10.49,62.04 14.18,60.08 17.47,57.53 C 18.01,57.13 19.08,56.32 19.62,55.92 C 17.41,50.12 15.24,44.31 12.7,38.64 C 11.54,35.78 10.42,32.91 9.29,30.04 C 17.91,34.5 26.87,38.24 35.62,42.44 C 38.31,37.95 41.17,33.58 44.14,29.27 C 48.79,31.81 52.73,35.48 57.63,37.56 z"
         style="opacity:1;fill:#fa9815" />
    </g>
    <g
       id="#fff4d4ff">
      <path
         id="path2514"
         d="M 64.12,32.12 C 67.22,27.92 70.52,23.88 73.9,19.91 C 75.44,28.12 75.75,36.49 76.91,44.75 C 75.42,44.99 73.94,45.26 72.46,45.53 C 70.26,43.45 67.87,40.28 64.42,41.2 C 62.75,42.09 61.67,43.71 60.58,45.19 C 56.54,45.66 52.46,46.16 48.38,45.86 C 44.84,45.66 41.64,44.01 38.4,42.75 C 40.1,39.12 42.15,35.68 44.22,32.27 C 47.27,34.4 50.31,36.58 53.58,38.38 C 54.78,39 56.08,39.69 57.49,39.49 C 60.17,37.51 62.08,34.72 64.12,32.12 z"
         style="opacity:1;fill:#fff4d4" />
    </g>
    <g
       id="#fff0c2ff">
      <path
         id="path2517"
         d="M 13.08,35.04 C 19.22,37.4 24.91,40.73 31.01,43.14 C 33.41,44.29 36,43.36 38.4,42.75 C 41.64,44.01 44.84,45.66 48.38,45.86 C 52.46,46.16 56.54,45.66 60.58,45.19 L 60.21,45.87 C 56.95,53.12 54.81,60.81 52.34,68.35 C 51.2,71.19 51.95,74.2 52.72,77.02 C 52.49,77.37 52.03,78.06 51.8,78.41 C 47.92,79.12 44.1,80.79 42.13,84.42 C 38.31,90.82 38.57,99.88 43.82,105.44 C 42.34,105.87 40.91,106.44 39.64,107.31 C 38.78,101.45 37.91,95.57 36.39,89.84 L 36.17,88.97 C 35.99,88.59 35.63,87.82 35.45,87.44 C 32.18,87.1 28.88,87.14 25.6,87.38 C 26.53,84.51 27.38,81.56 29.04,79.02 C 32.04,74.37 36.3,70.5 38.34,65.25 C 39.22,62.95 39.82,60.05 38.17,57.93 C 36.43,55.6 33.91,54.06 31.54,52.45 C 25.85,48.84 21.03,44.09 15.8,39.88 C 14.9,38.27 13.99,36.65 13.08,35.04 z"
         style="opacity:1;fill:#fff0c2" />
    </g>
    <g
       id="#00000025">
      <path
         id="path2520"
         d="M 11.12,41.79 C 10.73,40.42 11.45,39.2 12.7,38.64 C 15.24,44.31 17.41,50.12 19.62,55.92 C 19.08,56.32 18.01,57.13 17.47,57.53 C 14.96,52.47 12.15,47.4 11.12,41.79 z"
         style="opacity:0.15;fill:#000000" />
    </g>
    <g
       id="#ffebadff">
      <path
         id="path2523"
         d="M 15.8,39.88 C 21.03,44.09 25.85,48.84 31.54,52.45 C 33.91,54.06 36.43,55.6 38.17,57.93 C 39.82,60.05 39.22,62.95 38.34,65.25 C 36.3,70.5 32.04,74.37 29.04,79.02 C 27.38,81.56 26.53,84.51 25.6,87.38 C 24.85,87.43 23.34,87.53 22.59,87.58 C 22.38,85.92 21.74,84.12 22.53,82.53 C 24.66,77.75 28.24,73.67 29.59,68.54 C 30.44,65.53 30.36,62.08 28.52,59.44 C 26.26,56.12 22.96,53.73 20.16,50.91 C 18.33,47.39 17.05,43.64 15.8,39.88 z"
         style="opacity:1;fill:#ffebad" />
    </g>
    <g
       id="#050505ff">
      <path
         id="path2526"
         d="M 64.42,41.2 C 67.87,40.28 70.26,43.45 72.46,45.53 C 71.6,47.41 70.76,49.3 69.9,51.18 C 66.56,49.61 63.33,47.82 60.21,45.87 L 60.58,45.19 C 61.67,43.71 62.75,42.09 64.42,41.2 z"
         style="opacity:1;fill:#050505" />
    </g>
    <g
       id="#ffeeb9ff">
      <path
         id="path2529"
         d="M 76.91,44.75 C 79.83,44.34 82.78,44.27 85.73,44.2 C 86.17,44.61 87.04,45.45 87.48,45.86 C 84.6,48.88 81.38,51.8 79.67,55.67 C 78.55,58.64 80.39,61.62 82.01,64 C 84.84,68.26 89.13,71.19 92.47,74.99 C 94.55,78.76 96.21,82.76 98.69,86.3 C 100.93,89.53 102.61,93.09 104.13,96.71 C 101.78,96.15 99.44,95.59 97.1,95.06 C 95.88,94.32 94.69,93.53 93.47,92.8 C 94.98,92.37 96.49,91.94 98,91.52 C 96.27,87.9 94.67,84.1 91.74,81.25 C 83.83,73.21 74.09,67.12 63.75,62.68 C 66.07,59 68.1,55.14 69.9,51.18 C 70.76,49.3 71.6,47.41 72.46,45.53 C 73.94,45.26 75.42,44.99 76.91,44.75 z"
         style="opacity:1;fill:#ffeeb9" />
    </g>
    <g
       id="#ffe8a2ff">
      <path
         id="path2532"
         d="M 85.73,44.2 C 87.83,44.14 89.93,44.01 92.03,43.89 C 92.11,48.68 92.27,53.49 93.04,58.24 C 94.49,62.55 95.91,66.87 96.79,71.34 C 95.34,72.54 93.9,73.76 92.47,74.99 C 89.13,71.19 84.84,68.26 82.01,64 C 80.39,61.62 78.55,58.64 79.67,55.67 C 81.38,51.8 84.6,48.88 87.48,45.86 C 87.04,45.45 86.17,44.61 85.73,44.2 z"
         style="opacity:1;fill:#ffe8a2" />
    </g>
    <g
       id="#212121ff">
      <path
         id="path2535"
         d="M 52.34,68.35 C 54.81,60.81 56.95,53.12 60.21,45.87 C 63.33,47.82 66.56,49.61 69.9,51.18 C 68.1,55.14 66.07,59 63.75,62.68 C 60.73,67.33 58.01,72.18 54.64,76.59 C 54.16,76.7 53.2,76.91 52.72,77.02 C 51.95,74.2 51.2,71.19 52.34,68.35 z"
         style="opacity:1;fill:#212121" />
      <path
         id="path2537"
         d="M 42.13,84.42 C 44.1,80.79 47.92,79.12 51.8,78.41 C 52.59,80.8 53.83,83.15 53.79,85.72 C 53.65,89.06 49.44,90.44 46.7,89.45 C 44.88,88.07 43.57,86.16 42.13,84.42 z"
         style="opacity:1;fill:#212121" />
    </g>
    <g
       id="#ffe699ff">
      <path
         id="path2540"
         d="M 20.16,50.91 C 22.96,53.73 26.26,56.12 28.52,59.44 C 30.36,62.08 30.44,65.53 29.59,68.54 C 28.24,73.67 24.66,77.75 22.53,82.53 C 21.74,84.12 22.38,85.92 22.59,87.58 C 19.98,87.63 17.38,87.38 14.79,87.13 C 16.37,84.59 18.24,82.24 19.97,79.8 C 21.09,78.06 22.22,76.18 22.27,74.05 C 22.5,68.98 21,64.04 20.66,59 C 20.43,56.31 20.36,53.61 20.16,50.91 z"
         style="opacity:1;fill:#ffe699" />
    </g>
    <g
       id="#ffdc74ff">
      <path
         id="path2543"
         d="M 93.04,58.24 C 99.76,58.34 106.49,58.23 113.21,58.46 C 108.29,63.45 102.25,67.03 96.79,71.34 C 95.91,66.87 94.49,62.55 93.04,58.24 z"
         style="opacity:1;fill:#ffdc74" />
    </g>
    <g
       id="#ffdf80ff">
      <path
         id="path2546"
         d="M 11,64.19 C 14.12,62.28 17.31,60.49 20.66,59 C 21,64.04 22.5,68.98 22.27,74.05 C 22.22,76.18 21.09,78.06 19.97,79.8 C 20.32,77.69 21.15,75.16 19.71,73.27 C 17.11,69.97 13.99,67.13 11,64.19 z"
         style="opacity:1;fill:#ffdf80" />
    </g>
    <g
       id="#0000002b">
      <path
         id="path2549"
         d="M 94.24,75.9 C 101.91,70.21 109.8,64.85 117.7,59.49 C 118.06,60.89 118.51,62.29 118.61,63.75 C 117.36,66.89 114.18,68.65 111.59,70.6 C 106.67,73.79 101.65,77.11 98.36,82.09 C 97.04,79.99 95.67,77.93 94.24,75.9 z"
         style="opacity:0.17000002;fill:#000000" />
    </g>
    <g
       id="#fff5d4ff">
      <path
         id="path2552"
         d="M 54.64,76.59 C 58.01,72.18 60.73,67.33 63.75,62.68 C 74.09,67.12 83.83,73.21 91.74,81.25 C 94.67,84.1 96.27,87.9 98,91.52 C 96.49,91.94 94.98,92.37 93.47,92.8 C 89.32,90.74 84.94,89.07 80.45,87.91 C 78.44,87.25 76.82,89.02 75.37,90.12 C 76.39,88.02 77.47,85.95 78.58,83.89 C 75.99,82.3 73.46,80.58 70.72,79.24 C 65.74,76.86 60.1,76.18 54.64,76.59 z"
         style="opacity:1;fill:#fff5d4" />
    </g>
    <g
       id="#0000002a">
      <path
         id="path2555"
         d="M 9.47,66.3 C 12.67,69.42 17.1,71.64 18.98,75.87 C 18.36,77.45 17.43,78.88 16.52,80.3 C 14.1,77.77 11.36,75.43 9.66,72.32 C 8.6,70.47 9.42,68.28 9.47,66.3 z"
         style="opacity:0.16000001;fill:#000000" />
    </g>
    <g
       id="#fffbf0ff">
      <path
         id="path2558"
         d="M 54.64,76.59 C 60.1,76.18 65.74,76.86 70.72,79.24 C 73.46,80.58 75.99,82.3 78.58,83.89 C 77.47,85.95 76.39,88.02 75.37,90.12 C 73.88,93.6 71.65,96.67 69.35,99.65 C 65.46,96.76 61.1,94.62 57.09,91.91 C 52.24,96.01 48.28,100.97 43.82,105.44 C 38.57,99.88 38.31,90.82 42.13,84.42 C 43.57,86.16 44.88,88.07 46.7,89.45 C 49.44,90.44 53.65,89.06 53.79,85.72 C 53.83,83.15 52.59,80.8 51.8,78.41 C 52.03,78.06 52.49,77.37 52.72,77.02 C 53.2,76.91 54.16,76.7 54.64,76.59 z"
         style="opacity:1;fill:#fffbf0" />
    </g>
    <g
       id="#fcc169ff">
      <path
         id="path2561"
         d="M 13.72,88.8 C 13.99,88.38 14.52,87.55 14.79,87.13 C 17.38,87.38 19.98,87.63 22.59,87.58 C 23.34,87.53 24.85,87.43 25.6,87.38 C 28.88,87.14 32.18,87.1 35.45,87.44 C 35.63,87.82 35.99,88.59 36.17,88.97 C 28.69,88.85 21.2,89 13.72,88.8 z"
         style="opacity:1;fill:#fcc169" />
    </g>
    <g
       id="#faad4eff">
      <path
         id="path2564"
         d="M 75.37,90.12 C 76.82,89.02 78.44,87.25 80.45,87.91 C 84.94,89.07 89.32,90.74 93.47,92.8 C 94.69,93.53 95.88,94.32 97.1,95.06 C 95.77,95 94.44,94.95 93.11,94.89 C 88.33,93.31 83.56,91.7 78.86,89.9 C 75.95,94.56 72.77,99.04 70.13,103.86 C 66.07,100.46 61.55,97.69 57.17,94.74 C 50.74,100.59 45.03,107.16 38.7,113.11 C 37.85,107.41 36.94,101.72 36.24,96 C 36.26,93.94 36.38,91.89 36.39,89.84 C 37.91,95.57 38.78,101.45 39.64,107.31 C 40.91,106.44 42.34,105.87 43.82,105.44 C 48.28,100.97 52.24,96.01 57.09,91.91 C 61.1,94.62 65.46,96.76 69.35,99.65 C 71.65,96.67 73.88,93.6 75.37,90.12 z"
         style="opacity:1;fill:#faad4e" />
    </g>
    <g
       id="#00000027">
      <path
         id="path2567"
         d="M 12.15,91.09 C 19.76,90.41 27.38,89.88 35.02,89.85 C 35.43,91.89 35.87,93.94 36.24,96 C 36.94,101.72 37.85,107.41 38.7,113.11 C 45.03,107.16 50.74,100.59 57.17,94.74 C 61.55,97.69 66.07,100.46 70.13,103.86 C 72.77,99.04 75.95,94.56 78.86,89.9 C 83.56,91.7 88.33,93.31 93.11,94.89 C 98.5,97.1 103.8,99.53 109.24,101.62 C 109.09,103.07 108.95,104.51 108.82,105.96 C 107.01,106.22 105.17,106.88 103.33,106.54 C 95.69,104.78 88.9,100.29 81.14,98.98 C 77.26,101.05 75.53,105.48 72.11,108.12 C 70.77,109.13 68.89,109.06 67.34,108.61 C 64.02,107.56 61.25,105.29 57.96,104.16 C 51.51,106.44 48.77,113.91 42.53,116.57 C 40.36,117.41 37.4,116.97 36.4,114.61 C 34.07,109.56 34.79,103.64 32.36,98.62 C 25.96,96.31 18.99,98.97 12.45,97.46 C 10.73,96.63 10,94.6 8.82,93.17 C 9.91,92.45 11.01,91.73 12.15,91.09 z"
         style="opacity:0.15;fill:#000000" />
    </g>
  </g>
</svg>
